!!!OTL: ES WOHNTEN ZWEI LIEBCHEN IN SCHWABEN
!!!ARE: Europa, Mitteleuropa, Deutschland, St. Wendel, Kirrweiler
!!!SCT: E0049B
!!!YEM: Copyright 1995, estate of Helmut Schaffrath.
**kern
*ICvox
*Ivox
*M2/4
*k[b-]
*F:
{8c
=1
8f
16f
16f
8f
16e
16f
=2
8g
8e
8r}
{8c
=3
8g
16g
16g
8g
16f
16g
=4
8a
8f
8r}
{16f
16a
=5
8cc
16cc
16a
8b-
16b-
16g
=6
8a
8ff
8dd}
{16dd
16dd
=7
8cc
16cc
16a
16b-
16dd
16cc
16b-
=8
4a
8r}
==
!!!AGN: erzaehlendes Volks - Lied, Sage, Mord, Ballade ?
!!!ONB: ESAC (Essen Associative Code) Database: ERK1
!!!AMT: simple duple
!!!AIN: vox
!!!EED: Helmut Schaffrath
!!!EEV: 1.0
*-
